X: 1163
T: Another Jig Will Do!   #2
R: slipjig
%S: s:2 b:9(4+5)
B: O'Neill's 1850 Music of Ireland #1163
Z: Stephen Foy (shf@access.digex.net)
%% abc 1.6
M: 9/8
K: D
"^A"|: ABA A2G F2G |[1,3 ABA AGF G3 :|[2,4 A2d d2c d3 "^B":: A2g f2d e2c |
[1 A2B =c2d c3 :|[2 A2d d2c d3 :|[3 A2B =c2d c2^c | d2A A2G F2G | A2d d2c d3 :|
